X:1
T:Title
%%score { ( 1 3 ) | ( 2 4 ) }
L:1/8
M:4/4
K:C
V:1 treble nm="Grand Piano"
V:3 treble 
V:2 bass 
V:4 bass 
V:1
 z4 z2[Q:1/4=100] [CE]>[DF] | [EG]>[_E^F] [=EG]>[Ge] [=Fd]2 [Ec]2 | [EG]6 [Ec]>[EB] | %3
 A>^G A>B c2 [^Fe]2 | d6 e>d | [Ec]>[EG] [_E^F]>[=EG] [Ec]2 [Ec]2 | [Fc]6 [Ac]>A | %7
 G>^F G>e d2 [=FB]2 |[M:3/4] [Ec]6 |[M:1/4] G>e |[M:4/4] z d3- d2 z2 | z c3- c2 z2 | %12
 A>^G A>B c2 [^Fe]2 | d6 e>d |[M:3/4] z c- c4 |[M:1/4] c>B |[M:4/4] z A3- A2 z2 | %17
 G>^F G>e d2 [=FB]2 |[M:3/4] [Ec]6 |] %19
V:2
 z4 z2 [C,G,]>[C,G,] | [C,C]>[C,C] [C,C]>[C,C] [C,C]2 [C,C]2 | [C,C]6 [C,C]>[C,C] | %3
 [F,CF]>[F,B,F] [F,CF]>[F,^G,F] [F,A,F]2 [D,C]2 | [G,B,G]6 [G,B,G]>[G,B,F] | %5
 [C,C]>[C,C] [C,C]>[C,C] [C,G,]2 [C,_B,]2 | [F,A,]6 [F,C]>[K:treble][F,CF] | %7
 [G,CE]>[G,C_E] [G,C=E]>[G,CG] [G,B,F]2[K:bass] [A,,G,]2 |[M:3/4] [C,G,]6 |[M:1/4] z2 | %10
[M:4/4] z2 [G,B,]>[G,B,] [G,B,]2[K:treble] F>F | z[K:bass] E3- E2 z2 | %12
 [F,CF]>[F,B,F] [F,CF]>[F,^G,F] [F,A,F]2 [D,C]2 | [G,B,G]6 z2 | %14
[M:3/4] z2[K:bass] [C,G,]>[C,G,] [C,G,]2 |[M:1/4][K:treble] E>G | %16
[M:4/4] z[K:bass] F3- F2 z2[K:treble] | [G,CE]>[G,C_E] [G,C=E]>[G,CG] [G,B,F]2[K:bass] [G,,G,]2 | %18
[M:3/4] [C,G,]6 |] %19
V:3
 x8 | x8 | x8 | x8 | x8 | x8 | x8 | x8 |[M:3/4] x6 |[M:1/4] x2 |[M:4/4] .e2 F>F F2 G>d | %11
 .d2 G,>G, G,2 [Ec]>[EB] | x8 | x8 |[M:3/4] .d2 E>E E2 |[M:1/4] x2 |[M:4/4] .B2 C>C C2 [CAc]>A | %17
 x8 |[M:3/4] x6 |] %19
V:4
 x8 | x8 | x8 | x8 | x8 | x8 | x15/2[K:treble] x/ | x6[K:bass] x2 |[M:3/4] x6 |[M:1/4] x2 | %10
[M:4/4] x6[K:treble] x2 | .F2[K:bass] C,>C, C,2 [C,G,]>[C,C] | x8 | x8 |[M:3/4] x2[K:bass] x4 | %15
[M:1/4][K:treble] x2 |[M:4/4] .G2[K:bass] F,>F, F,2 F,>[K:treble][F,CF] | x6[K:bass] x2 | %18
[M:3/4] x6 |] %19

